;FLAVOR:Marlin
;TIME:21526
;Filament used: 20.4368m
;Layer height: 0.2
;MINX:44.988
;MINY:89.199
;MINZ:0.2
;MAXX:196.988
;MAXY:145.801
;MAXZ:50.8
;Generated with Cura_SteamEngine main
M140 S60
M105
M190 S60
M104 S200
M105
M109 S200
M82 ;absolute extrusion mode
; Ender 3 Custom Start G-code
G92 E0 ; Reset Extruder
G28 ; Home all axes
G1 Z2.0 F3000 ; Move Z Axis up little to prevent scratching of Heat Bed
G1 X0.1 Y20 Z0.3 F5000.0 ; Move to start position
G1 X0.1 Y200.0 Z0.3 F1500.0 E15 ; Draw the first line
G1 X0.4 Y200.0 Z0.3 F5000.0 ; Move to side a little
G1 X0.4 Y20 Z0.3 F1500.0 E30 ; Draw the second line
G92 E0 ; Reset Extruder
G1 Z2.0 F3000 ; Move Z Axis up little to prevent scratching of Heat Bed
G1 X5 Y20 Z0.3 F5000.0 ; Move over to prevent blob squish
G92 E0
G92 E0
G1 F2700 E-5
;LAYER_COUNT:254
;LAYER:0
M107
G0 F6000 X95.1 Y91.457 Z0.2
G0 X92.687 Y97.1
;TYPE:SKIRT
G1 F2700 E0
G1 F1200 X92.727 Y96.312 E0.02624
G1 X92.846 Y95.531 E0.05252
G1 X93.044 Y94.766 E0.0788
G1 X93.318 Y94.026 E0.10505
G1 X93.666 Y93.317 E0.13132
G1 X94.083 Y92.646 E0.15759
G1 X94.567 Y92.022 E0.18386
G1 X95.1 Y91.457 E0.20969
G1 X95.689 Y90.931 E0.23596
G1 X96.327 Y90.466 E0.26221
G1 X97.01 Y90.069 E0.28849
G1 X97.729 Y89.743 E0.31475
G1 X98.477 Y89.491 E0.341
G1 X99.248 Y89.316 E0.3673
G1 X100.031 Y89.22 E0.39353
G1 X100.588 Y89.2 E0.41207
G1 X141.388 Y89.199 E1.76908
G1 X142.176 Y89.239 E1.79533
G1 X142.957 Y89.358 E1.8216
G1 X143.722 Y89.556 E1.84789
G1 X144.462 Y89.83 E1.87413
G1 X145.171 Y90.178 E1.9004
G1 X145.842 Y90.595 E1.92668
G1 X146.466 Y91.079 E1.95294
G1 X147.031 Y91.612 E1.97878
G1 X147.557 Y92.201 E2.00504
G1 X148.022 Y92.839 E2.0313
G1 X148.419 Y93.522 E2.05757
G1 X148.745 Y94.241 E2.08383
G1 X148.997 Y94.989 E2.11008
G1 X149.172 Y95.76 E2.13638
G1 X149.268 Y96.543 E2.16262
G1 X149.288 Y97.1 E2.18116
G1 X149.289 Y137.9 E3.53817
G1 X149.249 Y138.688 E3.56441
G1 X149.13 Y139.469 E3.59069
G1 X148.932 Y140.234 E3.61697
G1 X148.658 Y140.974 E3.64322
G1 X148.31 Y141.683 E3.66948
G1 X147.893 Y142.354 E3.69576
G1 X147.409 Y142.978 E3.72203
G1 X146.876 Y143.543 E3.74786
G1 X146.287 Y144.069 E3.77413
G1 X145.649 Y144.534 E3.80038
G1 X144.966 Y144.931 E3.82666
G1 X144.247 Y145.257 E3.85292
G1 X143.499 Y145.509 E3.87917
G1 X142.728 Y145.684 E3.90546
G1 X141.945 Y145.78 E3.9317
G1 X141.388 Y145.8 E3.95024
G1 X100.588 Y145.801 E5.30725
G1 X99.8 Y145.761 E5.3335
G1 X99.019 Y145.642 E5.35977
G1 X98.254 Y145.444 E5.38606
G1 X97.514 Y145.17 E5.4123
G1 X96.805 Y144.822 E5.43857
G1 X96.134 Y144.405 E5.46485
G1 X95.51 Y143.921 E5.49111
G1 X94.945 Y143.388 E5.51695
G1 X94.419 Y142.799 E5.54321
G1 X93.954 Y142.161 E5.56947
G1 X93.557 Y141.478 E5.59574
G1 X93.231 Y140.759 E5.622
G1 X92.979 Y140.011 E5.64825
G1 X92.804 Y139.24 E5.67455
G1 X92.708 Y138.457 E5.70079
G1 X92.688 Y137.9 E5.71933
G1 X92.687 Y97.1 E7.07634
G0 F6000 X93.087 Y97.1
G1 F1200 X93.127 Y96.332 E7.10192
G1 X93.246 Y95.572 E7.1275
G1 X93.444 Y94.829 E7.15308
G1 X93.718 Y94.11 E7.17867
G1 X94.065 Y93.424 E7.20424
G1 X94.481 Y92.777 E7.22982
G1 X94.962 Y92.177 E7.2554
G1 X95.382 Y91.741 E7.27553
G1 X95.955 Y91.229 E7.30109
G1 X96.579 Y90.78 E7.32666
G1 X97.247 Y90.397 E7.35227
G1 X97.95 Y90.086 E7.37784
G1 X98.682 Y89.85 E7.40342
G1 X99.435 Y89.69 E7.42902
G1 X100.2 Y89.61 E7.45461
G1 X100.588 Y89.6 E7.46752
G1 X141.388 Y89.599 E8.82453
G1 X142.156 Y89.639 E8.85011
G1 X142.916 Y89.758 E8.87569
G1 X143.659 Y89.956 E8.90127
G1 X144.378 Y90.23 E8.92686
G1 X145.064 Y90.577 E8.95243
G1 X145.711 Y90.993 E8.97801
G1 X146.311 Y91.474 E9.00359
G1 X146.747 Y91.894 E9.02373
G1 X147.259 Y92.467 E9.04928
G1 X147.708 Y93.091 E9.07485
G1 X148.091 Y93.759 E9.10046
G1 X148.402 Y94.462 E9.12603
G1 X148.638 Y95.194 E9.15161
G1 X148.798 Y95.947 E9.17721
G1 X148.878 Y96.712 E9.2028
G1 X148.888 Y97.1 E9.21571
G1 X148.889 Y137.9 E10.57272
G1 X148.849 Y138.668 E10.5983
G1 X148.73 Y139.428 E10.62388
G1 X148.532 Y140.171 E10.64946
G1 X148.258 Y140.89 E10.67505
G1 X147.911 Y141.576 E10.70062
G1 X147.495 Y142.223 E10.7262
G1 X147.014 Y142.823 E10.75178
G1 X146.594 Y143.259 E10.77192
G1 X146.021 Y143.771 E10.79747
G1 X145.397 Y144.22 E10.82304
G1 X144.729 Y144.603 E10.84865
G1 X144.026 Y144.914 E10.87422
G1 X143.294 Y145.15 E10.8998
G1 X142.541 Y145.31 E10.92541
G1 X141.776 Y145.39 E10.95099
G1 X141.388 Y145.4 E10.9639
G1 X100.588 Y145.401 E12.32091
G1 X99.82 Y145.361 E12.34649
G1 X99.06 Y145.242 E12.37207
G1 X98.317 Y145.044 E12.39765
G1 X97.598 Y144.77 E12.42324
G1 X96.912 Y144.423 E12.44881
G1 X96.265 Y144.007 E12.47439
G1 X95.665 Y143.526 E12.49997
G1 X95.229 Y143.106 E12.52011
G1 X94.717 Y142.533 E12.54566
G1 X94.268 Y141.909 E12.57123
G1 X93.885 Y141.241 E12.59684
G1 X93.574 Y140.538 E12.62241
G1 X93.338 Y139.806 E12.64799
G1 X93.178 Y139.053 E12.6736
G1 X93.098 Y138.288 E12.69918
G1 X93.088 Y137.9 E12.71209
G1 X93.087 Y97.1 E14.0691
G0 F6000 X93.487 Y97.1
G1 F1200 X93.527 Y96.353 E14.09398
G1 X93.646 Y95.615 E14.11885
G1 X93.844 Y94.893 E14.14375
G1 X94.117 Y94.197 E14.16861
G1 X94.464 Y93.534 E14.1935
G1 X94.879 Y92.911 E14.2184
G1 X95.601 Y92.081 E14.25499
G1 X96.222 Y91.529 E14.28262
G1 X96.831 Y91.094 E14.30751
G1 X97.482 Y90.727 E14.33237
G1 X98.17 Y90.431 E14.35728
G1 X98.884 Y90.21 E14.38214
G1 X99.619 Y90.067 E14.40704
G1 X100.588 Y90 E14.43935
G1 X141.388 Y89.999 E15.79636
G1 X142.135 Y90.039 E15.82125
G1 X142.873 Y90.158 E15.84611
G1 X143.595 Y90.356 E15.87101
G1 X144.291 Y90.629 E15.89588
G1 X144.954 Y90.976 E15.92076
G1 X145.577 Y91.391 E15.94566
G1 X146.407 Y92.113 E15.98225
G1 X146.959 Y92.734 E16.00989
G1 X147.394 Y93.343 E16.03478
G1 X147.761 Y93.994 E16.05963
G1 X148.057 Y94.682 E16.08454
G1 X148.278 Y95.396 E16.1094
G1 X148.421 Y96.131 E16.13431
G1 X148.488 Y97.1 E16.16661
G1 X148.489 Y137.9 E17.52363
G1 X148.449 Y138.647 E17.54851
G1 X148.33 Y139.385 E17.57337
G1 X148.132 Y140.107 E17.59827
G1 X147.859 Y140.803 E17.62314
G1 X147.512 Y141.466 E17.64803
G1 X147.097 Y142.089 E17.67292
G1 X146.375 Y142.919 E17.70951
G1 X145.754 Y143.471 E17.73715
G1 X145.145 Y143.906 E17.76204
G1 X144.494 Y144.273 E17.7869
G1 X143.806 Y144.569 E17.81181
G1 X143.092 Y144.79 E17.83667
G1 X142.357 Y144.933 E17.86157
G1 X141.388 Y145 E17.89388
G1 X100.588 Y145.001 E19.25089
G1 X99.841 Y144.961 E19.27577
G1 X99.103 Y144.842 E19.30063
G1 X98.381 Y144.644 E19.32554
G1 X97.685 Y144.371 E19.3504
G1 X97.022 Y144.024 E19.37529
G1 X96.399 Y143.609 E19.40019
G1 X95.569 Y142.887 E19.43678
G1 X95.017 Y142.266 E19.46441
G1 X94.582 Y141.657 E19.4893
G1 X94.215 Y141.006 E19.51416
G1 X93.919 Y140.318 E19.53907
G1 X93.698 Y139.604 E19.56393
G1 X93.555 Y138.869 E19.58883
G1 X93.488 Y137.9 E19.62114
G1 X93.487 Y97.1 E20.97815
G0 F6000 X93.887 Y97.1
G1 F1200 X93.927 Y96.375 E21.0023
G1 X94.046 Y95.658 E21.02648
G1 X94.244 Y94.959 E21.05064
G1 X94.517 Y94.286 E21.0748
G1 X94.862 Y93.647 E21.09895
G1 X95.276 Y93.05 E21.12311
G1 X95.886 Y92.361 E21.15372
G1 X96.488 Y91.828 E21.18046
G1 X97.081 Y91.409 E21.20461
G1 X97.717 Y91.057 E21.22879
G1 X98.387 Y90.778 E21.25293
G1 X99.084 Y90.574 E21.27708
G1 X99.799 Y90.447 E21.30124
G1 X100.588 Y90.4 E21.32753
G1 X141.388 Y90.399 E22.68454
G1 X142.113 Y90.439 E22.70869
G1 X142.83 Y90.558 E22.73286
G1 X143.529 Y90.756 E22.75703
G1 X144.202 Y91.029 E22.78118
G1 X144.841 Y91.374 E22.80534
G1 X145.438 Y91.788 E22.8295
G1 X146.127 Y92.398 E22.86011
G1 X146.66 Y93 E22.88685
G1 X147.079 Y93.593 E22.911
G1 X147.431 Y94.229 E22.93518
G1 X147.71 Y94.899 E22.95932
G1 X147.914 Y95.596 E22.98347
G1 X148.041 Y96.311 E23.00762
G1 X148.088 Y97.1 E23.03391
G1 X148.089 Y137.9 E24.39093
G1 X148.049 Y138.625 E24.41508
G1 X147.93 Y139.342 E24.43925
G1 X147.732 Y140.041 E24.46341
G1 X147.459 Y140.714 E24.48757
G1 X147.114 Y141.353 E24.51172
G1 X146.7 Y141.95 E24.53589
G1 X146.09 Y142.639 E24.56649
G1 X145.488 Y143.172 E24.59324
G1 X144.895 Y143.591 E24.61739
G1 X144.259 Y143.943 E24.64156
G1 X143.589 Y144.222 E24.6657
G1 X142.892 Y144.426 E24.68986
G1 X142.177 Y144.553 E24.71401
G1 X141.388 Y144.6 E24.7403
G1 X100.588 Y144.601 E26.09731
G1 X99.863 Y144.561 E26.12146
G1 X99.146 Y144.442 E26.14564
G1 X98.447 Y144.244 E26.1698
G1 X97.774 Y143.971 E26.19396
G1 X97.135 Y143.626 E26.21811
G1 X96.538 Y143.212 E26.24227
G1 X95.849 Y142.602 E26.27288
G1 X95.316 Y142 E26.29962
G1 X94.897 Y141.407 E26.32377
G1 X94.545 Y140.771 E26.34795
G1 X94.266 Y140.101 E26.37209
G1 X94.062 Y139.404 E26.39624
G1 X93.935 Y138.689 E26.4204
G1 X93.888 Y137.9 E26.44668
G1 X93.887 Y97.1 E27.8037
G0 F6000 X94.287 Y97.1
G1 F1200 X94.327 Y96.397 E27.82712
G1 X94.446 Y95.704 E27.8505
G1 X94.644 Y95.028 E27.87393
G1 X94.916 Y94.379 E27.89734
G1 X95.261 Y93.765 E27.92076
G1 X95.672 Y93.194 E27.94416
G1 X96.174 Y92.64 E27.96903
G1 X96.753 Y92.128 E27.99474
G1 X97.33 Y91.725 E28.01814
G1 X97.949 Y91.389 E28.04157
G1 X98.602 Y91.127 E28.06497
G1 X99.281 Y90.939 E28.0884
G1 X99.977 Y90.83 E28.11184
G1 X100.588 Y90.8 E28.13218
G1 X141.388 Y90.799 E29.4892
G1 X142.091 Y90.839 E29.51262
G1 X142.784 Y90.958 E29.536
G1 X143.46 Y91.156 E29.55943
G1 X144.109 Y91.428 E29.58284
G1 X144.723 Y91.773 E29.60626
G1 X145.294 Y92.184 E29.62966
G1 X145.848 Y92.686 E29.65453
G1 X146.36 Y93.265 E29.68023
G1 X146.763 Y93.842 E29.70364
G1 X147.099 Y94.461 E29.72707
G1 X147.361 Y95.114 E29.75047
G1 X147.549 Y95.793 E29.7739
G1 X147.658 Y96.489 E29.79733
G1 X147.688 Y97.1 E29.81768
G1 X147.689 Y137.9 E31.17469
G1 X147.649 Y138.603 E31.19811
G1 X147.53 Y139.296 E31.2215
G1 X147.332 Y139.972 E31.24493
G1 X147.06 Y140.621 E31.26833
G1 X146.715 Y141.235 E31.29176
G1 X146.304 Y141.806 E31.31516
G1 X145.802 Y142.36 E31.34002
G1 X145.223 Y142.872 E31.36573
G1 X144.646 Y143.275 E31.38914
G1 X144.027 Y143.611 E31.41256
G1 X143.374 Y143.873 E31.43597
G1 X142.695 Y144.061 E31.4594
G1 X141.999 Y144.17 E31.48283
G1 X141.388 Y144.2 E31.50318
G1 X100.588 Y144.201 E32.86019
G1 X99.885 Y144.161 E32.88361
G1 X99.192 Y144.042 E32.907
G1 X98.516 Y143.844 E32.93042
G1 X97.867 Y143.572 E32.95383
G1 X97.253 Y143.227 E32.97725
G1 X96.682 Y142.816 E33.00065
G1 X96.128 Y142.314 E33.02552
G1 X95.616 Y141.735 E33.05123
G1 X95.213 Y141.158 E33.07463
G1 X94.877 Y140.539 E33.09806
G1 X94.615 Y139.886 E33.12146
G1 X94.427 Y139.207 E33.1449
G1 X94.318 Y138.511 E33.16833
G1 X94.288 Y137.9 E33.18867
G1 X94.287 Y97.1 E34.54569
G0 F6000 X94.687 Y97.1
G1 F1200 X94.727 Y96.42 E34.56834
G1 X94.846 Y95.75 E34.59098
G1 X95.043 Y95.098 E34.61363
G1 X95.315 Y94.474 E34.63627
G1 X95.659 Y93.886 E34.65893
G1 X96.069 Y93.343 E34.68156
G1 X96.507 Y92.878 E34.7028
G1 X97.018 Y92.429 E34.72543
G1 X97.579 Y92.042 E34.7481
G1 X98.18 Y91.723 E34.77073
G1 X98.815 Y91.477 E34.79338
G1 X99.475 Y91.308 E34.81604
G1 X100.15 Y91.217 E34.83869
G1 X100.588 Y91.2 E34.85327
G1 X141.388 Y91.199 E36.21028
G1 X142.068 Y91.239 E36.23294
G1 X142.738 Y91.358 E36.25557
G1 X143.39 Y91.555 E36.27823
G1 X144.014 Y91.827 E36.30087
G1 X144.602 Y92.171 E36.32353
G1 X145.145 Y92.581 E36.34616
G1 X145.61 Y93.019 E36.3674
G1 X146.059 Y93.53 E36.39003
G1 X146.446 Y94.091 E36.41269
G1 X146.765 Y94.692 E36.43533
G1 X147.011 Y95.327 E36.45798
G1 X147.18 Y95.987 E36.48064
G1 X147.271 Y96.662 E36.50329
G1 X147.288 Y97.1 E36.51787
G1 X147.289 Y137.9 E37.87488
G1 X147.249 Y138.58 E37.89754
G1 X147.13 Y139.25 E37.92017
G1 X146.933 Y139.902 E37.94282
G1 X146.661 Y140.526 E37.96546
G1 X146.317 Y141.114 E37.98812
G1 X145.907 Y141.657 E38.01075
G1 X145.469 Y142.122 E38.032
G1 X144.958 Y142.571 E38.05462
G1 X144.397 Y142.958 E38.07729
G1 X143.796 Y143.277 E38.09992
G1 X143.161 Y143.523 E38.12257
G1 X142.501 Y143.692 E38.14523
G1 X141.826 Y143.783 E38.16789
G1 X141.388 Y143.8 E38.18246
G1 X100.588 Y143.801 E39.53948
G1 X99.908 Y143.761 E39.56213
G1 X99.238 Y143.642 E39.58477
G1 X98.586 Y143.445 E39.60742
G1 X97.962 Y143.173 E39.63006
G1 X97.374 Y142.829 E39.65272
G1 X96.831 Y142.419 E39.67535
G1 X96.366 Y141.981 E39.6966
G1 X95.917 Y141.47 E39.71922
G1 X95.53 Y140.909 E39.74189
G1 X95.211 Y140.308 E39.76452
G1 X94.965 Y139.673 E39.78717
G1 X94.796 Y139.013 E39.80983
G1 X94.705 Y138.338 E39.83248
G1 X94.688 Y137.9 E39.84706
G1 X94.687 Y97.1 E41.20408
G0 F6000 X95.087 Y97.1
G1 F1200 X95.127 Y96.444 E41.22593
G1 X95.246 Y95.798 E41.24778
G1 X95.443 Y95.172 E41.26961
G1 X95.715 Y94.573 E41.29149
G1 X96.057 Y94.012 E41.31334
G1 X96.725 Y93.219 E41.34783
G1 X97.283 Y92.73 E41.37251
G1 X97.826 Y92.36 E41.39436
G1 X98.41 Y92.059 E41.41621
G1 X99.026 Y91.831 E41.43806
G1 X99.665 Y91.679 E41.45991
G1 X100.588 Y91.6 E41.49072
G1 X141.388 Y91.599 E42.84773
G1 X142.044 Y91.639 E42.86959
G1 X142.69 Y91.758 E42.89144
G1 X143.316 Y91.955 E42.91327
G1 X143.915 Y92.227 E42.93515
G1 X144.476 Y92.569 E42.957
G1 X145.269 Y93.237 E42.99148
G1 X145.758 Y93.795 E43.01616
G1 X146.128 Y94.338 E43.03802
G1 X146.429 Y94.922 E43.05987
G1 X146.657 Y95.538 E43.08171
G1 X146.809 Y96.177 E43.10356
G1 X146.888 Y97.1 E43.13437
G1 X146.889 Y137.9 E44.49139
G1 X146.849 Y138.556 E44.51325
G1 X146.73 Y139.202 E44.53509
G1 X146.533 Y139.828 E44.55692
G1 X146.261 Y140.427 E44.5788
G1 X145.919 Y140.988 E44.60065
G1 X145.251 Y141.781 E44.63514
G1 X144.693 Y142.27 E44.65982
G1 X144.15 Y142.64 E44.68167
G1 X143.566 Y142.941 E44.70352
G1 X142.95 Y143.169 E44.72537
G1 X142.311 Y143.321 E44.74722
G1 X141.388 Y143.4 E44.77803
G1 X100.588 Y143.401 E46.13504
G1 X99.932 Y143.361 E46.1569
G1 X99.286 Y143.242 E46.17875
G1 X98.66 Y143.045 E46.20058
G1 X98.061 Y142.773 E46.22246
G1 X97.5 Y142.431 E46.24431
G1 X96.707 Y141.763 E46.27879
G1 X96.218 Y141.205 E46.30347
G1 X95.848 Y140.662 E46.32533
G1 X95.547 Y140.078 E46.34718
G1 X95.319 Y139.462 E46.36903
G1 X95.167 Y138.823 E46.39087
G1 X95.088 Y137.9 E46.42168
G1 X95.087 Y97.1 E47.7787
G0 F6000 X95.487 Y97.1
G1 F1200 X95.527 Y96.469 E47.79973
G1 X95.646 Y95.848 E47.82076
G1 X95.843 Y95.248 E47.84176
G1 X96.114 Y94.676 E47.86281
G1 X96.454 Y94.144 E47.88381
G1 X97.011 Y93.499 E47.91216
G1 X97.547 Y93.031 E47.93582
G1 X98.072 Y92.679 E47.95685
G1 X98.637 Y92.396 E47.97786
G1 X99.233 Y92.187 E47.99887
G1 X99.851 Y92.055 E48.01989
G1 X100.588 Y92 E48.04447
G1 X141.388 Y91.999 E49.40148
G1 X142.019 Y92.039 E49.42251
G1 X142.64 Y92.158 E49.44354
G1 X143.24 Y92.355 E49.46455
G1 X143.812 Y92.626 E49.4856
G1 X144.344 Y92.966 E49.5066
G1 X144.989 Y93.523 E49.53494
G1 X145.457 Y94.059 E49.55861
G1 X145.809 Y94.584 E49.57963
G1 X146.092 Y95.149 E49.60065
G1 X146.301 Y95.745 E49.62166
G1 X146.433 Y96.363 E49.64268
G1 X146.488 Y97.1 E49.66726
G1 X146.489 Y137.9 E51.02427
G1 X146.449 Y138.531 E51.0453
G1 X146.33 Y139.152 E51.06633
G1 X146.133 Y139.752 E51.08733
G1 X145.862 Y140.324 E51.10839
G1 X145.522 Y140.856 E51.12939
G1 X144.965 Y141.501 E51.15773
G1 X144.429 Y141.969 E51.1814
G1 X143.904 Y142.321 E51.20242
G1 X143.339 Y142.604 E51.22344
G1 X142.743 Y142.813 E51.24444
G1 X142.125 Y142.945 E51.26546
G1 X141.388 Y143 E51.29004
G1 X100.588 Y143.001 E52.64706
G1 X99.957 Y142.961 E52.66809
G1 X99.336 Y142.842 E52.68912
G1 X98.736 Y142.645 E52.71012
G1 X98.164 Y142.374 E52.73117
G1 X97.632 Y142.034 E52.75217
G1 X96.987 Y141.477 E52.78052
G1 X96.519 Y140.941 E52.80418
G1 X96.167 Y140.416 E52.82521
G1 X95.884 Y139.851 E52.84622
G1 X95.675 Y139.255 E52.86723
G1 X95.543 Y138.637 E52.88825
G1 X95.488 Y137.9 E52.91283
G1 X95.487 Y97.1 E54.26984
G0 F6000 X95.887 Y97.1
G1 F1200 X95.927 Y96.495 E54.29001
G1 X96.046 Y95.901 E54.31016
G1 X96.242 Y95.327 E54.33033
G1 X96.512 Y94.784 E54.3505
G1 X96.852 Y94.282 E54.37067
G1 X97.298 Y93.778 E54.39305
G1 X97.81 Y93.334 E54.41559
G1 X98.316 Y93 E54.43576
G1 X98.862 Y92.736 E54.45593
G1 X99.437 Y92.546 E54.47607
G1 X100.033 Y92.434 E54.49624
G1 X100.588 Y92.4 E54.51473
G1 X141.388 Y92.399 E55.87175
G1 X141.993 Y92.439 E55.89191
G1 X142.587 Y92.558 E55.91206
G1 X143.161 Y92.754 E55.93224
G1 X143.704 Y93.024 E55.95241
G1 X144.206 Y93.364 E55.97257
G1 X144.71 Y93.81 E55.99496
G1 X145.154 Y94.322 E56.0175
G1 X145.488 Y94.828 E56.03766
G1 X145.752 Y95.374 E56.05783
G1 X145.942 Y95.949 E56.07798
G1 X146.054 Y96.545 E56.09815
G1 X146.088 Y97.1 E56.11664
G1 X146.089 Y137.9 E57.47365
G1 X146.049 Y138.505 E57.49382
